other/hidedroid.svg

<svg width="48" height="48" version="1.1" viewBox="0 0 48 48" xmlns="http://www.w3.org/2000/svg"><defs><style>.cls-1{fill:none;stroke:#fff;stroke-linecap:round;stroke-linejoin:round;}</style></defs><g fill="none" stroke="#fff" stroke-linecap="round" stroke-linejoin="round"><path d="m15.58 21.628-2.5211-2.4403c-0.97818-0.97736-2.5662-0.97736-3.5444 0-0.96882 0.97094-0.96882 2.54 0 3.511l0.33769 0.33178m0.00169 4.9908c-0.71791 1.7801-1.0948 3.6905-1.0984 5.6316v7.2482c0 0.88335 0.71813 1.5994 1.6039 1.5994h27.307c0.87054-0.02118 1.5652-0.7311 1.5648-1.5994v-7.2482c0.0064-1.9321-0.35792-3.8356-1.0613-5.6117m-0.45935-4.5761 0.80864-0.79749c0.97313-0.96917 0.97313-2.5418 0-3.511-0.97368-0.98084-2.5629-0.98084-3.5366 0l-2.5418 2.6453"/><g stroke-width="1px"><path d="m5.4999 25.663h37s-19.205-10.502-37 0z"/><path d="m13.019 16.277h21.961l-3.441-10.777-10.354 1.6049-5.0031-1.5961z"/><path d="m22.188 32.387s1.7069-1.7613 3.625 0"/></g><ellipse cx="17.536" cy="32.387" rx="4.6515" ry="4.6515" stop-color="#000000" stroke-miterlimit="10" style="paint-order:markers fill stroke"/><ellipse cx="30.464" cy="32.387" rx="4.6515" ry="4.6515" stop-color="#000000" stroke-miterlimit="10" style="paint-order:markers fill stroke"/></g></svg>

<svg xmlns="http://www.w3.org/2000/svg" viewBox="0 0 48 48"><defs><style>.a{fill:none;stroke:#fff;stroke-linecap:round;stroke-linejoin:round;}</style></defs><path class="a" d="M15.58,21.6278l-2.5211-2.44a2.4945,2.4945,0,1,0-3.5444,3.511l.3377.3317M9.854,28.021a15.13,15.13,0,0,0-1.0984,5.6316v7.2482A1.6016,1.6016,0,0,0,10.36,42.5h27.307a1.6014,1.6014,0,0,0,1.5648-1.5994V33.6526A15.1032,15.1032,0,0,0,38.17,28.0409m-.4594-4.5761.8087-.7974a2.4917,2.4917,0,1,0-3.5366-3.511l-2.5418,2.6453"/><path class="a" d="M5.5,25.6628h37S23.295,15.1608,5.5,25.6628Z"/><path class="a" d="M13.0191,16.2768H34.98L31.5386,5.5,21.1851,7.1047,16.182,5.91Z"/><path class="a" d="M22.1881,32.3868a2.53,2.53,0,0,1,3.625,0"/><circle class="a" cx="17.5361" cy="32.3868" r="4.6515"/><circle class="a" cx="30.4641" cy="32.3868" r="4.6515"/></svg>
